img/menu_icon2.svg

<svg width="21" height="12" viewBox="0 0 21 12" fill="none" xmlns="http://www.w3.org/2000/svg">
<path d="M17 4C16.5625 4 16.0938 4.09375 15.6875 4.21875L14.6562 2.5H17.25C17.6562 2.5 18 2.1875 18 1.75V0.75C18 0.34375 17.6562 0 17.25 0H15.8125C15.5938 0 15.4062 0.09375 15.25 0.25L14.0938 1.5625L13.375 0.375C13.25 0.15625 13 0 12.75 0H10.25C9.96875 0 9.75 0.25 9.75 0.5V1C9.75 1.28125 9.96875 1.5 10.25 1.5H12.3125L12.9062 2.5H8.09375C7.5625 1.78125 6.71875 1.25 5 1.25H3.25C2.84375 1.25 2.46875 1.59375 2.5 2.03125C2.5 2.4375 2.8125 2.75 3.25 2.75H5C5.75 2.75 6.1875 3.09375 6.46875 3.53125L6.125 4.1875C5.71875 4.0625 5.28125 4 4.84375 4.03125C2.71875 4.09375 1.03125 5.8125 1 7.90625C0.9375 10.1875 2.75 12 5 12C6.84375 12 8.40625 10.75 8.875 9H11.5C11.9062 9 12.25 8.65625 12.25 8.21875C12.1875 6.75 12.7812 5.3125 14 4.3125L14.375 4.96875C13.5312 5.71875 12.9688 6.8125 13 8.03125C13 10.2188 14.7812 12 16.9375 12C19.1875 12.0312 21 10.2188 21 7.96875C20.9688 5.8125 19.1875 4.03125 17 4ZM5 10.5C3.59375 10.5 2.5 9.40625 2.5 8C2.5 6.625 3.59375 5.5 5 5.5C5.125 5.5 5.25 5.53125 5.375 5.53125L4.09375 7.90625C3.8125 8.40625 4.15625 9 4.75 9H7.28125C6.875 9.90625 6 10.5 5 10.5ZM19.4688 8.15625C19.4062 9.40625 18.375 10.4375 17.125 10.5C15.6875 10.5938 14.5 9.4375 14.5 8C14.5 7.34375 14.75 6.75 15.1875 6.28125L16.7188 8.875C16.875 9.09375 17.1562 9.1875 17.4062 9.03125L17.8438 8.78125C18.0625 8.65625 18.1562 8.34375 18 8.09375L16.5 5.5625C16.6562 5.53125 16.8125 5.53125 17 5.53125C18.4062 5.5 19.5625 6.71875 19.4688 8.15625Z" fill="white"/>
</svg>

<svg width="21" height="12" fill="none" xmlns="http://www.w3.org/2000/svg"><path d="M17 4a4.62 4.62 0 00-1.313.219L14.658 2.5h2.593a.74.74 0 00.75-.75v-1a.76.76 0 00-.75-.75h-1.438a.783.783 0 00-.562.25l-1.156 1.313-.719-1.188A.75.75 0 0012.75 0h-2.5c-.281 0-.5.25-.5.5V1c0 .281.219.5.5.5h2.063l.593 1H8.094C7.563 1.781 6.719 1.25 5 1.25H3.25c-.406 0-.781.344-.75.781 0 .406.313.719.75.719H5c.75 0 1.188.344 1.469.781l-.344.656a3.525 3.525 0 00-1.281-.156C2.719 4.094 1.03 5.813 1 7.906.937 10.188 2.75 12 5 12c1.844 0 3.406-1.25 3.875-3H11.5c.406 0 .75-.344.75-.781A4.741 4.741 0 0114 4.313l.375.656c-.844.75-1.406 1.843-1.375 3.062C13 10.22 14.781 12 16.938 12c2.25.031 4.062-1.781 4.062-4.031C20.969 5.812 19.187 4.03 17 4zM5 10.5A2.468 2.468 0 012.5 8c0-1.375 1.094-2.5 2.5-2.5.125 0 .25.031.375.031L4.094 7.906C3.812 8.406 4.156 9 4.75 9h2.531C6.875 9.906 6 10.5 5 10.5zm14.469-2.344a2.496 2.496 0 01-2.344 2.344C15.687 10.594 14.5 9.437 14.5 8c0-.656.25-1.25.688-1.719l1.53 2.594c.157.219.438.313.688.156l.438-.25A.495.495 0 0018 8.094l-1.5-2.531c.156-.032.313-.032.5-.032 1.406-.031 2.563 1.188 2.469 2.625z" fill="#fff"/></svg>
